X: 216
T: Ora Lee
B: canberra pickers and fiddlers
B: songs
B: traditional songs
B: tunes
M:4/4
L:1/8
Q: 1/4=141
K:G
V:1 
{F/}G3E|:"G" D2G4 AB|"D"AG E2 {G/}A3G|F2D2 EDFD|"G"G3A BAGE|
D (3D/E/F/ G4 AB|"D"AGEG A3G|"D"~F2 D2 ED F2|1 "G"G6 GE:|2 "G"[G4B4]G2A2||
|:"G"[D3B3] d BA G2|([D4B4]B2) [Gd][Ac]|BAGE D2G2|[G4B4] [A2c2][B2d2]|
"C"[E4c4]c2B2|"D"A[GA][FA][GA] A3G|~F2D2 ED [F2A2]|1 [G2B4] G2A2:|2 ([G4B4]G4)||
W: [Verse 1]
W: When the blackbird in the Spring
W: 'Neath the willow tree
W: Sat and rocked, I heard him sing
W: Singing Aura Lea!
W: Aura Lea!, Aura Lea!
W: Maid of golden hair
W: Sunshine came along with thee
W: And swallows in the air
W: 
W: [Chorus]
W: Aura Lea!, Aura Lea!
W: Maid with golden hair
W: Aura Lea!, Aura Lea!
W: Maid with golden hair
W: Sunshine came along with thee
W: And swallows in the air
W: Sunshine came along with thee
W: And swallows in the air
W: [Verse 2]
W: In thy blush the rose was born
W: Music when you spake
W: In thine azure eye the morn
W: Sparkling, seemed to break
W: Aura Lea!, Aura Lea!
W: Take my golden ring
W: Love and life return with thee
W: And swallows in the Spring
W: 
W: [Chorus]
W: Aura Lea!, Aura Lea!
W: Maid with golden hair
W: Aura Lea!, Aura Lea!
W: Maid with golden hair
W: Sunshine came along with thee
W: And swallows in the air
W: Sunshine came along with thee
W: And swallows in the air
W: 
W: [Verse 3]
W: Aura Lea! The bird may flee
W: The willow's golden hair
W: Swing through winter fitfully
W: On the stormy air
W: Yet if thy blue eyes I see
W: Gloom will soon depart
W: For to me, sweet Aura Lea
W: Is sunshine through the heart
W: 
W: 
W: [Chorus]
W: Aura Lea!, Aura Lea!
W: Maid with golden hair
W: Aura Lea!, Aura Lea!
W: Maid with golden hair
W: Sunshine came along with thee
W: And swallows in the air
W: Sunshine came along with thee
W: And swallows in the air
W: 
W: [Verse 4]
W: When the mistletoe was green
W: Midst the winter's snows
W: Sunshine in thy face was seen
W: Kissing lips of rose
W: Aura Lea!, Aura Lea!
W: Take my golden ring
W: Love and light return with thee
W: And swallows with the Spring
W: 
W: [Chorus]
W: Aura Lea!, Aura Lea!
W: Maid with golden hair
W: Aura Lea!, Aura Lea!
W: Maid with golden hair
W: Sunshine came along with thee
W: And swallows in the air
W: Sunshine came along with thee
W: And swallows in the air
% abcbook-tune_id 63ae8f1cb365b3a4b8fb95d2
% abcbook-tune_composer_id 
% abcbook-link-0 https://www.youtube.com/watch?v=cw-Wxt4FVyM
% abcbook-boost 0
% abcbook-difficulty 1
% abcbook-tags canberra pickers and fiddlers,old time tunes,steve ryan,steve set,test,© free
% abcbook-tablature 
% abcbook-transpose 
% abcbook-tuning GDAD
% abcbook-lastupdated 1705707807027
% abcbook-src-url https://tunebook.net/scrape/traditional%20songs.abc
% abcbook-soundfonts 
% abcbook-repeats 1


